X: 20650
T: John Stenson's
R: reel
M: 4/4
K: Gmajor
|:G2BG dGBG|dedB AGEF|G2BG dGBG|1 dedB A3B:|2 dedB A2GA||
|:BEED EFGA|BEEF G3A|BEED EFGA|1 BddB A2GA:|2 BddB ABBA||

